X:1
T: Well Sold the Cow
C:
R:Strathspey
Q: 128
K:Am
M:4/4
L:1/16
|:e2|A4 A3B c4 c3c|dd3 d3d e8|A4 A3B c4 c3c|dd3 d3d e8|
e3d e3^f g4 g4|e3d e3^f g8|a4 e3e e4 c3c|de3 d3c B8|
A3B cA3 B4 E4|A4 A3B AG3 E4|A3B cA3 B4 e4|e3f e3d e8|
A3B cA3 B4 E4|A4 A3B AG3 E4|A3B cA3 B4 e4|e3d BG3 A4-A2:|
